outputs/icons/action/lock_alt_sharp.svg

<svg width="1200" height="1200" viewBox="0 0 1200 1200" fill="none" xmlns="http://www.w3.org/2000/svg"><g clip-path="url(#clip0_117_762)"><path d="M1000 399.992H850V310.492C850 179.992 754.5 63.492 624.5 50.992C475.5 36.992 350 153.992 350 299.992V399.992H200V1099.99H1000V399.992ZM600 849.99C545 849.99 500 804.99 500 749.99C500 694.99 545 649.99 600 649.99C655 649.99 700 694.99 700 749.99C700 804.99 655 849.99 600 849.99ZM450 399.992V299.992C450 216.992 517 149.992 600 149.992C683 149.992 750 216.992 750 299.992V399.992H450Z" fill="black"/></g><defs><clipPath id="clip0_117_762"><path width="24" fill="white" d="M0 0H1200V1200H0V0z"/></clipPath></defs></svg>

<svg xmlns="http://www.w3.org/2000/svg" width="1200" height="1200" fill="none"><g clip-path="url(#a)"><path fill="#000" d="M1000 399.992H850v-89.5c0-130.5-95.5-247-225.5-259.5-149-14-274.5 103-274.5 249v100H200v699.998h800zM600 849.99c-55 0-100-45-100-100s45-100 100-100 100 45 100 100-45 100-100 100M450 399.992v-100c0-83 67-150 150-150s150 67 150 150v100z"/></g><defs><clipPath id="a"><path fill="#fff" d="M0 0h1200v1200H0z"/></clipPath></defs></svg>
